icons/svg/filter-cancel-2.svg

<svg width="24" height="24" viewBox="0 0 24 24" fill="none" xmlns="http://www.w3.org/2000/svg">
<path d="M17.52 10.25L20.4386 7.43558C21.2103 6.68933 21.4586 5.55278 21.0684 4.55271C20.6695 3.53029 19.6844 2.85718 18.5869 2.85718H5.3973C4.30632 2.85718 3.32702 3.52631 2.93051 4.54267C2.53876 5.54679 2.79475 6.68815 3.57781 7.42878L8.39427 11.9842C8.67105 12.246 8.80944 12.3769 8.90856 12.5318C8.99642 12.6691 9.06132 12.8198 9.1007 12.978C9.14512 13.1564 9.14512 13.3469 9.14512 13.7279V17.7038C9.14512 18.9718 9.14512 19.6058 9.34857 20.0217C9.54496 20.4232 9.86512 20.7387 10.25 20.9314" stroke="currentColor" stroke-width="1.5" stroke-linecap="round" stroke-linejoin="round"/>
<path fill-rule="evenodd" clip-rule="evenodd" d="M17.5 23C20.5376 23 23 20.5376 23 17.5C23 14.4624 20.5376 12 17.5 12C14.4624 12 12 14.4624 12 17.5C12 20.5376 14.4624 23 17.5 23ZM15.1478 15.1478C15.3431 14.9525 15.6597 14.9525 15.8549 15.1478L17.5 16.7929L19.1451 15.1479C19.3403 14.9526 19.6569 14.9526 19.8522 15.1479C20.0474 15.3431 20.0474 15.6597 19.8522 15.855L18.2071 17.5L19.8522 19.1451C20.0474 19.3403 20.0474 19.6569 19.8522 19.8522C19.6569 20.0474 19.3403 20.0474 19.1451 19.8522L17.5 18.2071L15.8549 19.8522C15.6597 20.0475 15.3431 20.0475 15.1478 19.8522C14.9526 19.657 14.9526 19.3404 15.1478 19.1451L16.7929 17.5L15.1478 15.8549C14.9526 15.6596 14.9526 15.3431 15.1478 15.1478Z" fill="currentColor"/>
</svg>

<svg xmlns="http://www.w3.org/2000/svg" width="24" height="24" fill="none" viewBox="0 0 24 24"><path stroke="currentColor" stroke-linecap="round" stroke-linejoin="round" stroke-width="1.5" d="m17.52 10.25 2.919-2.814a2.664 2.664 0 0 0-1.852-4.579H5.397a2.648 2.648 0 0 0-1.82 4.572l4.817 4.555c.277.262.415.393.515.548a1.5 1.5 0 0 1 .192.446c.044.178.044.369.044.75v3.976c0 1.268 0 1.902.204 2.318a2 2 0 0 0 .901.91"/><path fill="currentColor" fill-rule="evenodd" d="M17.5 23a5.5 5.5 0 1 0 0-11 5.5 5.5 0 0 0 0 11m-2.352-7.852a.5.5 0 0 1 .707 0l1.645 1.645 1.645-1.645a.5.5 0 1 1 .707.707L18.207 17.5l1.645 1.645a.5.5 0 0 1-.707.707L17.5 18.207l-1.645 1.645a.5.5 0 1 1-.707-.707l1.645-1.645-1.645-1.645a.5.5 0 0 1 0-.707" clip-rule="evenodd"/></svg>
